dist/images/insta_black.svg

<svg width="16" height="15" viewBox="0 0 16 15" fill="none" xmlns="http://www.w3.org/2000/svg">
    <path d="M8.13897 3.68159C6.02383 3.68159 4.31774 5.38491 4.31774 7.49663C4.31774 9.60835 6.02383 11.3117 8.13897 11.3117C10.2541 11.3117 11.9602 9.60835 11.9602 7.49663C11.9602 5.38491 10.2541 3.68159 8.13897 3.68159ZM8.13897 9.9769C6.77211 9.9769 5.65467 8.8646 5.65467 7.49663C5.65467 6.12866 6.76878 5.01636 8.13897 5.01636C9.50915 5.01636 10.6233 6.12866 10.6233 7.49663C10.6233 8.8646 9.50583 9.9769 8.13897 9.9769ZM13.0078 3.52554C13.0078 4.02026 12.6087 4.41538 12.1165 4.41538C11.621 4.41538 11.2252 4.01694 11.2252 3.52554C11.2252 3.03413 11.6243 2.63569 12.1165 2.63569C12.6087 2.63569 13.0078 3.03413 13.0078 3.52554ZM15.5386 4.42866C15.4821 3.23667 15.2094 2.18081 14.3347 1.31089C13.4634 0.440967 12.4058 0.168701 11.2119 0.108936C9.9814 0.039209 6.29321 0.039209 5.0627 0.108936C3.8721 0.165381 2.81453 0.437646 1.93987 1.30757C1.06522 2.17749 0.795836 3.23335 0.735973 4.42534C0.666134 5.65386 0.666134 9.33608 0.735973 10.5646C0.79251 11.7566 1.06522 12.8124 1.93987 13.6824C2.81453 14.5523 3.86878 14.8246 5.0627 14.8843C6.29321 14.9541 9.9814 14.9541 11.2119 14.8843C12.4058 14.8279 13.4634 14.5556 14.3347 13.6824C15.2061 12.8124 15.4788 11.7566 15.5386 10.5646C15.6085 9.33608 15.6085 5.65718 15.5386 4.42866ZM13.949 11.8828C13.6895 12.5335 13.1874 13.0349 12.5322 13.2972C11.5511 13.6857 9.22314 13.596 8.13897 13.596C7.05479 13.596 4.72348 13.6824 3.74573 13.2972C3.09389 13.0382 2.59171 12.5369 2.32898 11.8828C1.93987 10.9033 2.02967 8.57905 2.02967 7.49663C2.02967 6.41421 1.9432 4.08667 2.32898 3.1105C2.58838 2.45972 3.09056 1.95835 3.74573 1.69604C4.7268 1.30757 7.05479 1.39722 8.13897 1.39722C9.22314 1.39722 11.5545 1.31089 12.5322 1.69604C13.184 1.95503 13.6862 2.4564 13.949 3.1105C14.3381 4.08999 14.2483 6.41421 14.2483 7.49663C14.2483 8.57905 14.3381 10.9066 13.949 11.8828Z"
          fill="black"/>
</svg>

<svg width="16" height="15" fill="none" xmlns="http://www.w3.org/2000/svg"><path d="M8.139 3.682a3.812 3.812 0 00-3.821 3.815 3.812 3.812 0 003.821 3.815 3.812 3.812 0 003.821-3.815 3.812 3.812 0 00-3.82-3.815zm0 6.295a2.487 2.487 0 01-2.484-2.48 2.485 2.485 0 014.968 0 2.487 2.487 0 01-2.484 2.48zm4.869-6.451c0 .494-.4.89-.891.89a.89.89 0 11.891-.89zm2.53.903c-.056-1.192-.329-2.248-1.203-3.118-.872-.87-1.93-1.142-3.123-1.202-1.23-.07-4.919-.07-6.15 0-1.19.056-2.247.329-3.122 1.199-.875.87-1.144 1.925-1.204 3.117-.07 1.229-.07 4.911 0 6.14.057 1.192.33 2.247 1.204 3.117.875.87 1.929 1.143 3.123 1.202 1.23.07 4.918.07 6.149 0 1.194-.056 2.251-.328 3.123-1.202.871-.87 1.144-1.925 1.204-3.117.07-1.229.07-4.908 0-6.136zm-1.589 7.454a2.514 2.514 0 01-1.417 1.414c-.98.389-3.309.299-4.393.299-1.084 0-3.416.086-4.393-.299a2.513 2.513 0 01-1.417-1.414c-.39-.98-.3-3.304-.3-4.386 0-1.083-.086-3.41.3-4.386a2.515 2.515 0 011.417-1.415c.98-.388 3.309-.299 4.393-.299 1.084 0 3.416-.086 4.393.299.652.259 1.154.76 1.417 1.415.39.979.3 3.303.3 4.386 0 1.082.09 3.41-.3 4.386z" fill="#000"/></svg>
